build/images/common/fb.svg

<svg width="12" height="23" viewBox="0 0 12 23" fill="none" xmlns="http://www.w3.org/2000/svg">
<path fill-rule="evenodd" clip-rule="evenodd" d="M11.4117 8.0621H8.10753V5.90719C8.32302 3.82411 11.7709 4.2551 11.7709 4.2551V4.11144V0.735411C11.6272 0.735411 5.01883 -0.844857 3.65405 4.18327C3.43856 4.82974 3.43856 7.70295 3.43856 8.0621H0.565346V11.9409H3.58222V22.5H7.96387V11.9409H11.4117L11.7709 8.0621H11.4117Z" fill="white"/>
</svg>

<svg width="12" height="23" fill="none" xmlns="http://www.w3.org/2000/svg"><path fill-rule="evenodd" clip-rule="evenodd" d="M11.412 8.062H8.108V5.907c.215-2.083 3.663-1.652 3.663-1.652V.735c-.144 0-6.752-1.58-8.117 3.448-.215.647-.215 3.52-.215 3.88H.565v3.878h3.017V22.5h4.382V11.94h3.448l.359-3.878h-.36z" fill="#fff"/></svg>
